!!!COM: Claude Debussy
!!!CNT: Francais
!!!TXO: Francais
!!!OTL: De gre\ve
!!!LYR: Claude Debussy
!!!OPR: Proses Lyriques
!!!ONM: No. 2
!!!ENC: Jacob Pegg
!!!YOR: Claude Debussy: Songs 1880-1904, Edited by Rita Benton
!!!YOR: New York: Dover publications, inc., 1981
!!!YOR: ISBN 0-486-24131-9
!!!ODT: 1895/
!!NB: Vocal melody and text only encoded.
!!NB: First instance of melodic material only encoded.
**kern	**silbe
*clef G2	*
*k[f#c#]	*
*M3/4	*
*MM[moderato]	*
!!created: 7/22/03 23:48
!!last edit: 7/23/03 12:15
!!notes in 25; words in 14. note chk 19; word chk 9
!!total input/edit time: 70 min.
=6	=6
{8.f#	{Sur
16f#	la
4.g#	mer
8g#	les
=7	=7
*M4/4	*
8f#	cre/-
8f#	-pus-
8.g#	-cu-
16g#	-les
4f#	tom-
4e}	-bent,}
=8	=8
*M3/4	*
8r	.
{8d	{Soie
12d	blan-
12d	-che ef-
12d	-fi-
[4d	-le/-
=9	=9
4d_	|
8d]}	-e.}
8r	.
4r	.
=10	=10
8r	.
{8fn	{Les
4g	va-
8fn	-gues
16g	com-
16g	-me
=11	=11
16a	de
16a	pe-
16b	-ti-
16a	-tes
4g	fol-
4fn}	-les,}
=12	=12
{8a	{Ja-
8fn}	-sent,}
16r	.
{16fn	{pe-
16fn	-ti-
16fn	-tes
12a	fil-
12fn	-les
12a	sor-
=13	=13
8cc#	-tant
16dd#	de
16cc#	l'e/-
4b	-co-
4a}	-le,}
=14	=14
*M2/4	*
8r	.
{8a	{Par-
12dd	-mi
12ee	les
12dd	frou-
=15	=15
12ee	-frous
12dd	de
12b	leur
8b-	ro-
8fn}	-be,}
=16	=16
*M3/4	*
4r	.
8r	.
{8e	{Soie
12e	verte
12e	i-
12e	-ri-
=17	=17
4e	-se/-
4d}	-e!}
4r	.
=18	=18
2.r	.
=19	=19
*k[]	*
8r	.
{16d	{Les
16d	nu-
8e-	-a-
8f-	-ges,
16fn	gra-
16fn	-ves
16f-	vo-
16e-	-ya-
=20	=20
4d}	-geurs,}
8r	.
{16f-	{Se
16f-	con-
8fn	-cer-
16en	-tent
16g	sur
=21	=21
16an	le
16f	pro-
16g	-chain
16an	o-
(8b-	-ra-
8cc-	|
8ccn	|
16cc-	|
16b-	|
=22	=22
16a)}	-ge,}
{16f	{Et
16g	c'est
16g	un
16f	fond
16f	vrai-
16g	-ment
16g	trop
8f	gra-
8d}	-ve}
=23	=23
8r	.
{8g	{a\
8f	cette
8g	an-
8a	-glaise
16b	a-
16g	-qua-
=24	=24
4cc	-rel-
8cc}	-le.}
8r	.
4r	.
=25	=25
4r	.
8.r	.
{16b-	{Les
8ff	va-
8b-}	-gues,}
=26	=26
8r	.
{16cc	{les
16dd	pe-
16cc	-ti-
16cc	-tes
[8ee	va-
8ee]	|
8cc}	-gues,}
=27	=27
16r	.
{16a-	{ne
16a-	sa-
16a-	-vent
8b-	plus
16b-	ou\
16b-	se
8cc#	met-
16cc#}	-tre,}
16r	.
=28	=28
4r	.
8r	.
{16b	{Car
16b	voi-
8dd#	-ci
16b	la
16b	me/-
=29	=29
16b	-chan-
16b	-te
[8dd#	aver-
4dd#]	|
4b}	-se.}
=30	=30
16r	.
{16dd#	{Frou-
16dd#	-frous
16dd#	de
16dd#	ju-
16dd#	-pes
16dd#	en-
16dd#	-vo-
(8gg	-le/-
8dd#)}	-es,}
=31	=31
4r	.
2r	.
=32	=32
8r	.
{8dd#	{Soie
8dd#	verte
16dd#	af-
16dd#	-fo-
[4gg	-le/-
=33	=33
2gg]	|
4g}	-e.}
=34	=34
4r	.
2r	.
=35	=35
2r	.
4r	.
=36	=36
*k[f#c#g#d#a#]	*
4r	.
{8f#	{Mais
8f#	la
[4f#	lu-
=37	=37
8f#]	|
16f#}	-ne,}
16r	.
12r	.
{(12e#	{com-
12e#)	-pa-
(12g#	-tis-
12g#	-sante
12g#)	a\
=38	=38
4an}	tous!}
8r	.
{8an	{Vient
8ddn	a-
8an	-pai-
=39	=39
12f#	-ser
12dn	ce
12dn	gris
12dn	con-
[6dn	-flit
6dn]}	|}
12r	.
=40	=40
*k[f#c#]	*
*MM104	*
4r	.
2r	.
=41	=41
{(2ff#	{Et
4a#)	ca-
=42	=42
8an	-res-
8an	-se
8f#	len-
8f#	-te-
4an}	-ment}
=43	=43
8r	.
{8a#	{ses
8g#	pe-
8f#	-ti-
8g#	-tes
8a#	a-
=44	=44
2ccn	-mies,
4a	qui
=45	=45
8dd	s'of-
8dd	-frent,
8ee-	com-
8ee-	-me
(12dd	le\-
12b	-vres
12dd)	ai-
=46	=46
4dd#	-man-
4ee	|
4b}	-tes,}
=47	=47
8r	.
{4aa	{A
8gg	ce
8ee	tie\de
8ffn	et
=48	=48
8dd	blanc
8ee	bai-
2a}	-ser.}
=49	=49
4r	.
4r	.
{4f#	{Puis,
=50	=50
8r	.
8c#	Plus
[4d	rien...
8d]}	|}
8r	.
=51	=51
4r	.
16r	.
{16c#	{Plus
16c#	que
16c#	les
16c#	clo-
16c#	-ches
16c#	at-
16c#	-tar-
=52	=52
8f#	-de/-
16f#}	-es}
16r	.
4r	.
12r	.
{(12e	{des
12e)	flot-
=53	=53
(12f#	-tan-
12f#	-tes
12f#)	e/-
4e	-gli-
4d}	-ses!}
=54	=54
4r	.
{8d	{An-
8d	-ge-
8d	-lus
8d	des
=55	=55
(2g	va-
4d)}	-gues,}
=56	=56
8r	.
{8d	{Soie
4d	blanche
8d	a-
8d	-pai-
=57	=57
2d	-se/-
8d}	-e!}
8r	.
*-	*-
